!!!id: BC032
!!!page: 42
!!!COM: Anonymous
!!!PTL@@FR: Les 100 plus belles chansons
!!!OTL@@FR: À la volette
!!!PUB: La Bonne Chanson, inc.
!!!YEM: On ne peut reproduire, enregistrer ou diffuser en tout ou en partie le présent ouvrage, sous quelque procédé que ce soit, électronique, mécanique, photographique, sonore, magnétique ou autre, sans avoir obtenu au préalable l'autorisation écrite de l'éditrice.
!!!PDT: 2011
!!!SMA: 2012 Bibliothèque nationale du Québec; Biblothèque nationale du Canada
!!!AGN-Laforte: Chanson en laisse, 11:1(5+5)
!!!AGN-type: Chanson d'oiseau
!!!AGN-rime: monorhyme /e/, except first line "chantait".
**kern	**text	**text	**text	**text	**text	**text	**text	**text	**text	**text	**text
*clefG2	*	*	*	*	*	*	*	*	*	*	*
*k[b-]	*	*	*	*	*	*	*	*	*	*	*
*F:	*	*	*	*	*	*	*	*	*	*	*
*M2/4	*	*	*	*	*	*	*	*	*	*	*
*	*v:1	*v:2	*v:3	*v:4	*v:5	*v:6	*v:7	*v:8	*v:9	*v:10	*v:11
*	*pline:1Ha	*pline:2Ha	*pline:3Ha	*pline:4Ha	*pline:5Ha	*pline:6Ha	*pline:7Ha	*pline:8Ha	*pline:9Ha	*pline:10Ha	*pline:11Ha
{{8a	Près	J'ai	Ses	Et	Le	L'oi-	Les	Au	Le	Et	Ain-
8cc	de	cou-	pe-	la	temps	-se-	pe-	bois	re-	leur	-si
=1	=1	=1	=1	=1	=1	=1	=1	=1	=1	=1	=1
4f	la	-ru	-tits,	pau-	de-	-leur	-tits	ils	-nard	pau-	les
4g	fon-	l'en-	re-	-vre	-vient	vous	par-	al-	a-	-vre	re-
=2	=2	=2	=2	=2	=2	=2	=2	=2	=2	=2	=2
8a	-tai-	-ten-	bel-	bê-	som-	guet-	-ti-	-lè-	-vi-	mè-	-bel-
8f}	-ne,	-dre	-les,	-te	-bre,	-te,	-rent,	rent,	-de	-re	-les
*	*pline:1Hb6	*pline:2Hb6	*pline:3Hb6	*pline:4Hb6	*pline:5Hb6	*pline:6Hb6	*pline:7Hb6	*pline:8Hb6	*pline:9Hb6	*pline:10Hb6	*pline:11Hb6
{8a	Un	Il	Vou-	Leur	Vous	Vous	Ils	Ri-	Les	Les	Sont
8cc	oi-	m'a	-laient	di-	se-	se-	sa-	-ant	a	a	tou-
=3	=3	=3	=3	=3	=3	=3	=3	=3	=3	=3	=3
4a	-seau	fait	le	-sait:	-rez	-rez	-vaient	des	tous	tous	-jours
4g	chan-	pleu-	quit-	Res-	mouil-	hap-	vo-	dan-	man-	pleu-	trai-
!!LO:PB:g=original
=4	=4	=4	=4	=4	=4	=4	=4	=4	=4	=4	=4
8f	-tait.	-rer.	-ter.	.-tez!	-lés.	-pés.	ler.	-gers.	gés.	-rés.	-tés.
*	*rp:ɛ	*rp:e	*rp:e	*rp:e	*rp:e	*rp:e	*rp:e	*rp:e	*rp:e	*rp:e	*rp:e
*	*rf:x	*rf:ʁe	*rf:te	*rf:te	*rf:le	*rf:pe	*rf:le	*rf:ʒe	*rf:ʒe	*rf:ʁe	*rf:te
*	*rs:x	*rs:a1	*rs:a2	*rs:a2	*rs:a3	*rs:a4	*rs:a3	*rs:a5	*rs:a5	*rs:a1	*rs:a2
8r}}	.	.	.	.	.	.	.	.	.	.	.
=:||	=:||	=:||	=:||	=:||	=:||	=:||	=:||	=:||	=:||	=:||	=:||
=||:	=||:	=||:	=||:	=||:	=||:	=||:	=||:	=||:	=||:	=||:	=||:
*	*pline:1Hc6-8	*pline:2Hc6-8	*pline:3Hc6-8	*pline:4Hc6-8	*pline:5Hc6-8	*pline:6Hc6-8	*pline:7Hc6-8	*pline:8Hc6-8	*pline:9Hc6-8	*pline:10Hc6-8	*pline:11Hc6-8
{8a	Un	Il	Vou-	Leur	Vous	Vous	Ils	Ri-	Les	Les	Sont
8b-	oi-	m'a	-laient	di-	re-	se-	sa-	-ant	a	a	tou-
=5	=5	=5	=5	=5	=5	=5	=5	=5	=5	=5	=5
4cc	-seau,	fait,	le,	saient,	-rez,	-rez,	-vaient,	des,	tous,	tous,	-jours,
*	*refrain	*refrain	*refrain	*refrain	*refrain	*refrain	*refrain	*refrain	*refrain	*refrain	*refrain
*	*italic	*italic	*italic	*italic	*italic	*italic	*italic	*italic	*italic	*italic	*italic
8cc	à	à	à	à	à	à	à	à	à	à	à
16b-	la	la	la	la	la	la	la	la	la	la	la
16a	vo-	vo-	vo-	vo-	vo-	vo-	vo-	vo-	vo-	vo-	vo-
=6	=6	=6	=6	=6	=6	=6	=6	=6	=6	=6	=6
8b-	-let-	-let-	-let-	-let-	-let-	-let-	-let-	-let-	-let-	-let-	-let-
8b-	-te,	-te,	-te,	-te,	-te,	-te,	-te,	-te,	-te,	-te,	-te,
*	*Xitalic	*Xitalic	*Xitalic	*Xitalic	*Xitalic	*Xitalic	*Xitalic	*Xitalic	*Xitalic	*Xitalic	*Xitalic
*	*Xrefrain	*Xrefrain	*Xrefrain	*Xrefrain	*Xrefrain	*Xrefrain	*Xrefrain	*Xrefrain	*Xrefrain	*Xrefrain	*Xrefrain
*	*pline:1Hc6-8	*pline:2Hc6-8	*pline:3Hc6-8	*pline:4Hc6-8	*pline:5Hc6-8	*pline:6Hc6-8	*pline:7Hc6-8	*pline:8Hc6-8	*pline:9Hc6-8	*pline:10Hc6-8	*pline:11Hc6-8
8g	Un	Il	Vou-	Leur	Vous	Vous	Ils	Ri-	Les	Les	Sont
8a	oi-	m'a	-laient	di-	se-	se-	sa-	-ant	a	a	tou-
!!LO:PB:g=original
=7	=7	=7	=7	=7	=7	=7	=7	=7	=7	=7	=7
4b-	-seau,	fait,	le,	-saient,	-rez,	-rez,	-vaient,	des,	tous,	tous,	-jours,
*	*refrain	*refrain	*refrain	*refrain	*refrain	*refrain	*refrain	*refrain	*refrain	*refrain	*refrain
*	*italic	*italic	*italic	*italic	*italic	*italic	*italic	*italic	*italic	*italic	*italic
8b-	à	à	à	à	à	à	à	à	à	à	à
16a	la	la	la	la	la	la	la	la	la	la	la
16g	vo-	vo-	vo-	vo-	vo-	vo-	vo-	vo-	vo-	vo-	vo-
=8	=8	=8	=8	=8	=8	=8	=8	=8	=8	=8	=8
8a	let-	let-	-let-	-let-	-let-	-let-	-let-	-let-	-let-	-let-	-let-
8a	-te,	-te,	-te,	-te,	-te,	-te,	-te,	-te,	-te,	-te,	-te,
*	*Xitalic	*Xitalic	*Xitalic	*Xitalic	*Xitalic	*Xitalic	*Xitalic	*Xitalic	*Xitalic	*Xitalic	*Xitalic
*	*Xrefrain	*Xrefrain	*Xrefrain	*Xrefrain	*Xrefrain	*Xrefrain	*Xrefrain	*Xrefrain	*Xrefrain	*Xrefrain	*Xrefrain
*	*pline:1Hbr	*pline:2Hbr	*pline:3Hbr	*pline:4Hbr	*pline:5Hbr	*pline:6Hbr	*pline:7Hbr	*pline:8Hbr	*pline:9Hbr	*pline:10Hbr	*pline:11Hbr
8f	Un	Il	Vou-	Leur	Vous	Vous	Ils	Ri-	Les	Les	Sont
8g	oi-	m'a	-laient	di-	se-	se-	sa-	-ant	a	a	tou-
=9	=9	=9	=9	=9	=9	=9	=9	=9	=9	=9	=9
4a	-seau	fait	le	-saient:	-rez	-rez	vaient	des	tous	tous	-jours
4g	chan-	pleu-	quit-	Res-	mouil-	hap-	vo-	dan-	man-	pleu-	trai-
=10	=10	=10	=10	=10	=10	=10	=10	=10	=10	=10	=10
8f}	-tait.	-rer.	-ter.	-tez!	-lés.	-pés.	ler.	-gers.	-gés.	-rés.	-tés.
*	*rp:ɛ	*rp:e	*rp:e	*rp:e	*rp:e	*rp:e	*rp:e	*rp:e	*rp:e	*rp:e	*rp:e
*	*rf:x	*rf:ʁe	*rf:te	*rf:te	*rf:le	*rf:pe	*rf:le	*rf:ʒe	*rf:ʒe	*rf:ʁe	*rf:te
*	*rs:x	*rs:a1	*rs:a2	*rs:a2	*rs:a3	*rs:a4	*rs:a3	*rs:a5	*rs:a5	*rs:a1	*rs:a2
8r	.	.	.	.	.	.	.	.	.	.	.
=:||	=:||	=:||	=:||	=:||	=:||	=:||	=:||	=:||	=:||	=:||	=:||
*-	*-	*-	*-	*-	*-	*-	*-	*-	*-	*-	*-
!!!EED: Ève Poudrier
!!!EEV: 2025/June/20
